!!!!SEGMENT: pl-wumfc--r282--002-003-pc0_paderewski-ignacy-jan--exercises-2-exercise-3-pc0.krn
!!!cenid: 18xx:3178a
!!!COM: Paderewski, Ignacy Jan
!!!COM-rismID: pe30029943
!!!CDT: 1860/11/18-1941/06/29
!!!CNT: Polish
!!!GTL: [Exercises 2]
!!!OTL: [Exercise] 3
!!!OMV: 003
!!!PDT:
!!!AGN:
!!!YEC: Copyright 2022 Narodowy Instytut Fryderyka Chopina (https://polishscores.org)
!!!YEM: License CC-BY-4.0 (https://creativecommons.org/licenses/by/4.0)
!!!SMS-siglum: PL-Wumfc
!!!SMS-shelfmark: R282
!!!SMS-shelfwork: 002-003 G
!!!SMS-variant:
!!!SMS-altvar:
!!!NIFC-rismSourceID: 1001158933
!!!NIFC-rismChildID: 1001158933
!!!NIFC-islandoraID: pl-wumfc:419
!!!URL-pdf-islandora: https://repozytorium.nifc.pl/islandora/object/pl-wumfc%3A419/datastream/PDF/view
!!!URL-scan: https://polish.musicsources.pl/pl/lokalizacje/galeria/rekopisy/4702 @EN{Scan on Polish Music Sources Website} @PL{Skany w portalu Dziedzictwo Muzyki Polskiej w otwartym dostępie}
!!!IIIF:
!!!ONB-nifc: UWAGA: druga grupa ćwiczeń od skanu 0008
!!!AIN: 1 piano
!!!key: G
**kern	**kern
*part1	*part1
*staff2	*staff1
*I"[Pianoforte]	*I"[Pianoforte]
*I'	*I'
*mI"Pianoforte	*mI"Pianoforte
*mI'pf	*mI'pf
*Ipiano	*Ipiano
*ICklav	*ICklav
*IGsolo	*IGsolo
*clefF4	*clefG2
*k[f#]	*k[f#]
*G:	*G:
!LO:MO:null:mod=*M4/2	!LO:MO:null:mod=*M4/2
*	*
*	*^
!LO:TX:a:i:t=C. f.	!LO:TX:a:t=3 Stimmen:mod=	!
2G\	(<2g/	2g\
=1	=1	=1
2G\	2b/)	[<2d\
2F#\	2a/	2d\]
2E\	2cc/	2e\
2D\	2b/	2f#\
=2	=2	=2
2G\	2b 2g\	2ryy
2A\	2cc/	2e\
!	!	!LO:TX:b:t=P:problem=fermata above note
2B;\	2b;/	2d;\
2B\	2f#/	[<2d\
=3	=3	=3
2B\	2g/	2d\]
2B\	2dd/	2B\
2A\	2cc/	2c\
2G\	2b/	2d\
=4	=4	=4
2c\	2a/	2e\
2B\	2b/	2d\
!	!	!LO:TX:b:t=P:problem=fermata above note
2A;\	2cc;/	2c;\
2G\	2b/	2d\
=5	=5	=5
2A\	2a/	2c\
2B\	2g/	2d\
2A\	2a/	2c\
2G\	2b/	2B\
!!LO:LB:g=original
=6	=6	=6
2E\	2cc/	2G\
2F#\	2a/	2A\
2G;\	2g;/	2B;\
2d\	2f#/	[<2d\
=7	=7	=7
2B\	2g/	2d\]
2G\	2b/	2B\
2A\	2a/	[<2c\
2c\	2ee/	2c\]
=8	=8	=8
2B\	2dd/	2d\
2A\	2cc/	2e\
2G\	2b/	2g\
*	*v	*v
==	==
*-	*-
!!!system-decoration: {(s1,s2)}
!!!RDF**kern: > = above
!!!RDF**kern: < = below
!!!filter-modern: sic -sq | shed -e "s/TX(.*):t=P:/tx$1:t=P:/LG" | autostem -r | modori -m
!!!ENC: Anastazja Marusiak
!!!END: 2021-11-12
!!!EED: Andrzej Kubiczek
!!!EEV: 2021-11-16
!!!ENC-modern: Andrzej Borzym
!!!END-modern: 2022-08-29
